X: 73
T: Mrs Trench
C: Carolan
%R: jig
B: "The Hibernian Muse" p.46 #1
F: http://imslp.org/wiki/The_Hibernian_Muse_%28Various%29
Z: 2015 John Chambers <jc:trillian.mit.edu>
P: No. LXXIII.
M: 6/8
L: 1/8
K: C
% - - - - - - - - - - - - - - - - - - - - - - - - - - - - -
V: 1
|:\
c2G cde | f2e d2c | {c}B2A GBG | B2c d2f |\
edc egg | a2d Td2c | B2A GcB | c3 c3 :|
|:\
g(e/f/g) g(e/f/g) | cec cec | a(f/g/a) a(f/g/a) | dfd dfd |\
efg abc' | bc'd' gag | e2c Tded | c3 c3 :|
% - - - - - - - - - - - - - - - - - - - - - - - - - - - - -
V: 2 clef=bass middle=d
|:\
c3 e2c | d2e f2d | g2d G2z | g2a b2g |\
c'3 c3 | f3 F3 | g3 G3 | c3 c3 :|
|:\
c'3 g3 | e3 c3 | d'3 a3 | f3 d3 |\
c3 f3 | g3 b3 | c'2e f2g | c3 c3 :|

%%sep 2 1 500
%%sep 1 1 500

